!!!!SEGMENT: pl-kk--kk-i-7--033-003_pekiel-bartlomiej--missa-patrem.krn
!!!cenid: 16xx:825
!!!COM: Pękiel, Bartłomiej
!!!COM-rismid: pe30105642
!!!CDT: <1633-~1670
!!!CNT: Polish
!!!OTL: Missa – Patrem
!!!PDT: 1664
!!!AGN: Sacred; Mass
!!!SMS-siglum: PL-Kk
!!!SMS-shelfmark: Kk.I.7
!!!SMS-shelfwork: 033-003 M
!!!SMS-variant:
!!!SMS-altvar:
!!!NIFC-rismid: 300258110
!!!system-decoration: [(s1,s2,s3,s4)]
**kern	**text	**kern	**text	**kern	**text	**kern	**text
*part4	*part4	*part3	*part3	*part2	*part2	*part1	*part1
*staff4	*staff4	*staff3	*staff3	*staff2	*staff2	*staff1	*staff1
*I"[Baſso]	*	*I"[Tenore II]	*	*I"[Tenore I]	*	*I"[Alto]	*
*I'B	*	*I'T	*	*I'A	*	*I'S	*
*clefF4	*	*clefC4	*	*clefC4	*	*clefC3	*
*k[]	*	*k[]	*	*k[]	*	*k[]	*
*M2/1	*	*M2/1	*	*M2/1	*	*M2/1	*
*met(C|)	*	*met(C|)	*	*met(C|)	*	*met(C|)	*
=1	=1	=1	=1	=1	=1	=1	=1
*2\right	*	*2\right	*	*2\right	*	*2\right	*
!LO:TX:t=P:problem:all\right:global	!	!LO:TX:t=P:problem:all\right:global	!	!LO:TX:t=P:problem:all\right:global	!	!LO:TX:t=P:problem:all\right:global	!
!	!	!	!	!LO:TX:t=P:problem:w źródle inicjał P na początku pięciolinii	!	!LO:TX:t=P:problem:w źródle inicjał P na początku pięciolinii	!
!LO:TX:t=P:problem:w źródle inicjał P na początku pięciolinii	!	!LO:TX:t=P:problem:w źródle inicjał P na początku pięciolinii	!	!	!	!	!
!LO:TX:t=P:problem:met(C|)	!	!LO:TX:t=P:problem:met(C|)	!	!LO:TX:t=P:problem:met(C|)	!	!LO:TX:t=P:problem:met(C|)	!
1G	PA-	1B	PA-	1d	PA-	0g	PA-
1C	-trem	2c\	-trem	2e\	-trem	.	.
.	.	2e\	o-	2d\	o-	.	.
=2-	=2-	=2-	=2-	=2-	=2-	=2-	=2-
2GG/	o-	4d\	-mni-	4B\	-mni-	2g\	-trem
.	.	4c\	.	4A/	.	.	.
1G	-mni-	1B	.	4G/	.	2g\	o-
.	.	.	.	4A/	.	.	.
.	.	.	.	4B\	.	2g\	-mni-
.	.	.	.	4c\	.	.	.
2F\	-po-	2A/	-po-	1d\	-po-	2a\	-po-
=3-	=3-	=3-	=3-	=3-	=3-	=3-	=3-
1E	-ten-	1e	-ten-	.	.	1g	-ten-
!	!	!	!	!LO:TX:t=P:problem:♯above	!	!	!
.	.	.	.	2c#Xi\	-ten-	.	.
2D/	-tem	1A	-tem	1d	-tem	1f#X	-tem
2D/	Fa-	.	.	.	.	.	.
=4-	=4-	=4-	=4-	=4-	=4-	=4-	=4-
1G	-cto-	1r	.	2r	.	2re	.
.	.	.	.	2B\	Fa-	2d\	Fa-
1E	-rem	2r	.	1e	-cto-	1g	-cto-
.	.	2G/	Fa-	.	.	.	.
=5-	=5-	=5-	=5-	=5-	=5-	=5-	=5-
2.A\	cae-	1c	-cto-	1cny	-rem	2e\	-rem
.	.	.	.	.	.	2.a\	cae-
4G\	.	.	.	.	.	.	.
4F\	.	2A/	-rem	00r	.	.	.
4E\	.	.	.	.	.	4g\	.
4D\	.	4d\	cae-	.	.	4f\	.
8E\L	.	4c\	.	.	.	4e\	.
8F\J	.	.	.	.	.	.	.
=6-	=6-	=6-	=6-	=6-	=6-	=6-	=6-
4G\	.	4B\	.	.	.	4d\	.
4F\	.	4A/	.	.	.	8e\L	.
.	.	.	.	.	.	8f\J	.
4E\	.	4G/	.	.	.	4g\	.
4D/	.	8A/L	.	.	.	4f\	.
.	.	8B/J	.	.	.	.	.
1C	.	4c\	.	.	.	4e\	.
.	.	4B\	.	.	.	4d/	.
.	.	4A/	.	.	.	1c/	.
.	.	4G/	.	.	.	.	.
=7-	=7-	=7-	=7-	=7-	=7-	=7-	=7-
2D/	-li	4F#X/	-li	.	.	.	.
.	.	4F#/	et	.	.	.	.
2GG/	et	2.G/	ter-	.	.	4B/	-li
.	.	.	.	.	.	4B/	et
1D	ter-	.	.	2r	.	1A	ter-
.	.	8F#X/L	.	.	.	.	.
.	.	8E/J	.	.	.	.	.
!	!	!LO:SIC:v:t=custos G	!	!	!	!	!
.	.	2F#/	.	2.d\	Vi-	.	.
!	!	!LO:LB:g=original	!	!	!	!	!
=8-	=8-	=8-	=8-	=8-	=8-	=8-	=8-
4GG/	-ra	4G/	-ra	.	.	1B	-ra
2G\	Vi-	2B\	Vi-	4d\	-ſi-	.	.
.	.	.	.	4.e\	-bi-	.	.
4G\	-ſi-	4B\	-ſi-	.	.	.	.
.	.	.	.	8d\	.	.	.
4.A\	-bi-	4.c\	-bi-	4.c\	.	2r	.
!LO:SIC:v:t=custos F	!	!	!	!	!	!	!
!	!	!LO:SIC:v:s=8c\	!	!	!	!	!
8G\	-li-	8B\	-li-	8c\	-li-	.	.
!LO:LB:g=original	!	!	!	!	!	!	!
4F#X\	-um	4A/	-um	2d\	-um	4r	.
!	!	!LO:TX:t=P:problem:♭below	!	!	!	!	!
2G\	o-	2B-X/	o-	.	.	4.d\	et
=9-	=9-	=9-	=9-	=9-	=9-	=9-	=9-
.	.	.	.	2.d\	o-	.	.
.	.	.	.	.	.	8e\	in-
!LO:TX:a:t=P:w źródle bemol w funkcji kasownika:problem	!	!	!	!	!	!	!
!LO:N:acc=-	!	!	!	!	!	!	!
4Fn\	.	4A/	.	.	.	8f\	-vi-
!	!	!	!	!	!	!LO:SIC:v:t=custos g	!
.	.	.	.	.	.	8d\	-ſi-
!	!	!	!	!	!	!LO:LB:g=original	!
4.E\	.	4.G/	.	.	.	2.g\	-bi-
!	!	!	!	!LO:TX:t=P:problem:♯above	!	!	!
.	.	.	.	4c#Xi\	-mni-	.	.
8E\	-mni-	8G/	-mni-	.	.	.	.
4D/	-um	1A	-um	4d\	-um	.	.
4.D/	et	.	.	4.d\	et	8f\L	.
.	.	.	.	.	.	8e\J	.
.	.	.	.	.	.	2f\	.
8E\	in-	.	.	8c#\	in-	.	.
8F#X\	-ui-	.	.	8.A\	-vi-	.	.
8G#X\	-ſi-	.	.	.	.	.	.
.	.	.	.	16B\	-ſi-	.	.
=10-	=10-	=10-	=10-	=10-	=10-	=10-	=10-
!	!	!	!	!LO:TX:t=P:problem:♯above	!	!	!
2.A\	-bi-	2r	.	4c#Xi\	-bi-	2.e\	.
.	.	.	.	2d\	.	.	.
.	.	2.A/	Et	.	.	.	.
!	!	!	!	!LO:TX:t=P:problem:♯above	!	!	!
!	!	!	!	!LO:SIC:v:t=custos d	!	!	!
4A\	-li-	.	.	4c#Xi\	-li-	4e\	-li-
!	!	!	!	!LO:LB:g=original	!	!	!
2D,</	-um.	.	.	2d,<\	-um	2f#X\	-um
!	!	!LO:TX:b:t=punct:rj	!	!	!	!	!
.	.	4G/	in	.	.	.	.
4.D/	Et	4F#X/	V-	2.d\	Et	2re	.
.	.	4D/	-num	.	.	.	.
8D/	in	.	.	.	.	.	.
=11-	=11-	=11-	=11-	=11-	=11-	=11-	=11-
4BB/	V-	4.d\	Do-	.	.	2r	.
4GG/	-num	.	.	4B\	in	.	.
.	.	8d\	-mi-	.	.	.	.
4.Gny\	Do-	2Bny\	-num	4G/	V-	2.g\	Et
.	.	.	.	4G/	-num	.	.
8G\	-mi-	.	.	.	.	.	.
2E\	-num	4.e\	Et	8g\L	Do-	.	.
.	.	.	.	8f\J	.	.	.
.	.	.	.	2e\	.	4g\	in
.	.	8d\	in	.	.	.	.
4.A\	V-	4.c\	V-	.	.	4e\	V-
.	.	.	.	4e\	-mi-	4c/	-num
8G\	-num	8B\	-num	.	.	.	.
=12-	=12-	=12-	=12-	=12-	=12-	=12-	=12-
2.Fny\	Do-	2.A/	Do-	2f\	-num	4c/	Do-
.	.	.	.	.	.	8d\L	.
.	.	.	.	.	.	8e\J	.
.	.	.	.	2.cny\	Je-	4.fny\	.
4F\	-mi-	4A/	-mi-	.	.	.	.
.	.	.	.	.	.	8fny\	-mi-
2C/	-n(um)	1G	-n(um)	.	.	1e	-num
.	.	.	.	4d\	.	.	.
(<4C/	Je-	.	.	4e\	.	.	.
4BB/)	.	.	.	4d\	.	.	.
=13-	=13-	=13-	=13-	=13-	=13-	=13-	=13-
(>2AA/	-ſum	2A/	Je-	2c\	.	2e\	Je-
2GG#X/)	.	4B\	-ſum	2B\	-ſum	2e\	-ſum
.	.	2B\	Chri-	.	.	.	.
1AA	Chri-	.	.	1c	Chri-	1e	Chri-
.	.	8A/L	.	.	.	.	.
.	.	8G/J	.	.	.	.	.
!	!	!LO:SIC:v:t=custos G	!	!	!	!	!
.	.	2A/	.	.	.	.	.
!	!	!LO:LB:g=original	!	!	!	!	!
=14-	=14-	=14-	=14-	=14-	=14-	=14-	=14-
4E\	-ſt(um)	4G#X/	-ſtum	4B\	-ſtum	4e\	-ſt(um)
4.E\	fi-	4.G#/	Fi-	4.B\	Fi-	4.e\	Fi-
8E\	-li-	8G#/	-li-	8B\	-li-	8e\	-li-
!LO:SIC:v:t=custos G	!	!	!	!	!	!	!
4A\	-um	4A/	-um	4c\	-um	4e\	-(um)
!LO:LB:g=original	!	!	!	!	!	!	!
2G\	De-	2B\	De-	2d\	De-	2g\	De-
4E\	-i	4c\	-i	4e\	-i	4g\	-i
2F\	V-	4.A\	V-	2c\	V-	2f\	V-
=15-	=15-	=15-	=15-	=15-	=15-	=15-	=15-
.	.	.	.	.	.	.	.
.	.	8A\	-ni-	.	.	.	.
4C/	-ni-	2c\	-ge-	4e\	-ni-	4g\	-ni-
4.G\	-ge-	.	.	4.d\	-ge-	4.g\	-ge-
.	.	4B\	-ni-	.	.	.	.
8GGny/	-ni-	.	.	8d\	-ni-	8g\	-ni-
2C/	-tum	4c\	-tum	4e\	-tum	4g\	-t(um)
.	.	2c\	Et	2e\	et	2g\	et
2r	.	.	.	.	.	.	.
.	.	4B\	ex	4d\	ex	4g\	ex
=16-	=16-	=16-	=16-	=16-	=16-	=16-	=16-
2rBB	.	4A/	Pa-	4c\	Pa-	8f\	Pa-
.	.	.	.	.	.	8f\	-tre
.	.	4Gny/	-tre	4B\	-tre	(>&(<2e\	na-
4rBB	.	2Fny/	na-	2A/	na-	.	.
!	!	!	!	!	!	!LO:SIC:v:t=custos e	!
2A\	an-	.	.	.	.	4d\&))	.
!	!	!	!	!	!	!LO:PB:g=original	!
.	.	2E/	-t(um)	2B\	-t(um)	2e\	-tum
!LO:TX:t=P:problem:♯above	!	!	!	!	!	!	!
4G#Xi\	-te	.	.	.	.	.	.
4.A\	o-	4r	.	4r	.	4.c/	an-
.	.	2A/	an-	8.A/	an-	.	.
8A\	-mni-	.	.	.	.	8d\	-te
!	!	!	!	!LO:SIC:v:t=custos c	!	!	!
.	.	.	.	16B\	-te	.	.
!	!	!	!	!LO:LB:g=original	!	!	!
=17-	=17-	=17-	=17-	=17-	=17-	=17-	=17-
2E\	-a	.	.	8.c\	o-	2.e\	o-
.	.	.	.	16c\	-mni-	.	.
!	!	!LO:TX:t=P:problem:♯below	!	!	!	!	!
.	.	4G#X/	-te	4B\	-a	.	.
(<2AA/	Sae-	2A/	o-	4.c\	Sae-	.	.
!	!	!	!	!	!	!LO:TX:t=P:problem:♯above	!
.	.	.	.	.	.	8f#Xi\	-mni-
.	.	.	.	8c\	-cu-	8f#\	-a
2.BB/)	.	4A/	-mni-	2.B,<\	-la	4d#X\	Sae-
.	.	4Gny/	-a	.	.	2e\	.
.	.	4.F#X/	Sae-	.	.	.	.
4BB/	-cu-	.	.	4B\	De-	4d#\	-cu-
.	.	8F#/	-cu-	.	.	.	.
=18-	=18-	=18-	=18-	=18-	=18-	=18-	=18-
4E\	-la	2E/	-la.	4B\	-um	4e\	-la
4E\	De-	.	.	4B\	de	4g\	De-
4E\	-um	2r	.	2c\	De-	4g\	-um
4E\	de	.	.	.	.	4g\	de
2F\	De-	4r	.	2A/	-o	2a\	De-
.	.	4A/	De-	.	.	.	.
2D/	-o	4A/	-um	4r	.	2fny\	-o
.	.	4A/	de	4d\	Lu-	.	.
=19-	=19-	=19-	=19-	=19-	=19-	=19-	=19-
4r	.	2B\	De-	4B\	-men	4r	.
4Gny\	Lu-	.	.	4G/	de	4g\	Lu-
4E\	-men	2G/	-o	4.c\	Lu-	4g\	-men
4C/	de	.	.	.	.	4g\	de
.	.	.	.	8B\	-mi-	.	.
4.F\	Lu-	4r	.	2A/	-ne	4.a\	Lu-
!	!	!LO:SIC:v:t=custos A	!	!	!	!	!
.	.	4A/	Lu-	.	.	.	.
8E\	-mi-	.	.	.	.	8g\	-mi-
!	!	!LO:LB:g=original	!	!	!	!	!
2D/	-ne	4A/	-men	2r	.	2f\	-ne
.	.	4A/	de	.	.	.	.
=20-	=20-	=20-	=20-	=20-	=20-	=20-	=20-
4r	.	4.B\	Lu-	4d\	De-	2re	.
8G\	De-	.	.	4d\	-um	.	.
!LO:SIC:v:t=custos E	!	!	!	!	!	!	!
8F\	-um	8A/	-mi-	.	.	.	.
!LO:LB:g=original	!	!	!	!	!	!	!
4.E\	Ve-	2G/	-ne	2e\	Ve-	4.g\	De-
16F\LL	.	.	.	.	.	8f\	-um
16G\JJ	.	.	.	.	.	.	.
4A\	.	1r	.	4c\	-rum	4e\	Ve-
8G\	-rum	.	.	4B\	de	8f\	-rum
8G\	de	.	.	.	.	8g\	de
4F\	De-	.	.	2A/	De-	4a\	De-
4E\	.	.	.	.	.	4g\	.
=21-	=21-	=21-	=21-	=21-	=21-	=21-	=21-
4D/	-o	2r	.	4A/	-o	4f\	-o
4C/	.	.	.	2A/	Ve-	4e\	.
2BB/	Ve-	4.B\	ge-	.	.	8dny\L	Ve-
.	.	.	.	.	.	8c\J	.
.	.	.	.	4G#X/	.	4B/	.
.	.	8B\	-ni-	.	.	.	.
2AA/	-ro	4c\	-tum	4A/	-ro,	2E/	-ro
.	.	4A/	non	2A/	ge-	.	.
!	!	!	!	!	!	!LO:SIC:v:t=custos e	!
2r	.	2.B\	fa-	.	.	2r	.
.	.	.	.	4G#X/	.	.	.
!	!	!	!	!	!	!LO:LB:g=original	!
=22-	=22-	=22-	=22-	=22-	=22-	=22-	=22-
2rBB	.	.	.	4.c\	.	1rc	.
.	.	2A/	.	.	.	.	.
.	.	.	.	8c\	-ni-	.	.
4.E\	ge-	.	.	2B\	-tum	.	.
.	.	4G#X/	.	.	.	.	.
8E\	-ni-	.	.	.	.	.	.
4F\	-tum	2A/	-ctum	4A/	non	2rA	.
4D/	non	.	.	2d\	fa-	.	.
2E\	fa-	2r	.	.	.	4.e\	ge-
!	!	!	!	!LO:TX:t=P:problem:♯above	!	!	!
!	!	!	!	!LO:SIC:v:t=custos d	!	!	!
.	.	.	.	4c#Xi\	.	.	.
.	.	.	.	.	.	8e\	-ni-
!	!	!	!	!LO:PB:g=original	!	!	!
=23-	=23-	=23-	=23-	=23-	=23-	=23-	=23-
4D/	-ct(um)	2rG	.	2d\	.	4f\	-tum
2D/	con-	.	.	.	.	4d\	non
.	.	4.e\	ge-	2A/	-ctum	2e\	fa-
4C#X/	-ſub-	.	.	.	.	.	.
.	.	8e\	-ni-	.	.	.	.
4.F\	-ſtan-	4.f\	-tum	1r	.	4d\	-ct(um)
.	.	.	.	.	.	2d\	con-
8D/	-ti-	8f\	non	.	.	.	.
2A\	-a-	2e\	fa-	.	.	.	.
.	.	.	.	.	.	4c#X/	-ſub-
=24-	=24-	=24-	=24-	=24-	=24-	=24-	=24-
4D/	-lem	2d\	-ct(um)	4r	.	4.f\	-ſtan-
8D/L	Pa-	.	.	2A/	Con-	.	.
8Cny/J	.	.	.	.	.	8e\	-ti-
8BB/L	.	2r	.	.	.	4.d\	-a-
8AA/J	.	.	.	.	.	.	.
4BB/	.	.	.	4G#X/	-ſub-	.	.
.	.	.	.	.	.	8d\	-lem
4AA/	-tri	2rG	.	4.cny\	-ſtan-	2e\	Pa-
2A\	Pa-	.	.	.	.	.	.
.	.	.	.	8c\	-ti-	.	.
.	.	4.E/	con-	2B\	-a-	4d\	.
!LO:TX:t=P:problem:♯above	!	!	!	!	!	!	!
4G#Xi\	.	.	.	.	.	8e\L	.
.	.	8E/	-ſub-	.	.	8d\J	.
=25-	=25-	=25-	=25-	=25-	=25-	=25-	=25-
!	!	!LO:SIC:v:s=4F	!	!	!	!	!
2A\	-tri	4F#X/	-stan-	4A/	-lem	8cny\L	.
.	.	.	.	.	.	16d\L	.
.	.	.	.	.	.	16e\JJ	.
.	.	4D/	-ti-	(>2d\	Pa-	(>4f\	.
!LO:SIC:v:t=custos D	!	!	!	!	!	!	!
2r	.	4.A/	-a-	.	.	2e\)	.
.	.	.	.	2c\	.	.	.
.	.	8Gny/	-l(em)	.	.	.	.
!LO:LB:g=original	!	!	!	!	!	!	!
!	!	!	!	!	!	!LO:TX:t=P:problem:kreska oddechu na różnych liniach [rozdzielacz słów / znak oddechu]:global	!
2r	.	4F#X/	Pa-	.	.	2d,<\	-tri
.	.	(<2G/	.	4B\)	.	.	.
2D/	per	.	.	4A,</	-tri	2d\	per
.	.	4F#,</)	.	4A/	per	.	.
=26-	=26-	=26-	=26-	=26-	=26-	=26-	=26-
2GG/	quem	4G,</	-tri	4B\	qu(em)	4d\	quem
.	.	8G/	per	4.B\	o-	4.d\	o-
!	!	!LO:SIC:v:t=custos G	!	!	!	!	!
.	.	8G/	qu(em)	.	.	.	.
!	!	!LO:LB:g=original	!	!	!	!	!
2r	.	4.G/	o-	.	.	.	.
.	.	.	.	8B\	-mni-	8d\	-mni-
.	.	.	.	4e\	-a	4g\	-a
.	.	8E/	-mni-	.	.	.	.
2rF	.	2Fny/	-a	8d\L	.	4.f\	fa-
.	.	.	.	8c\J	.	.	.
.	.	.	.	2c\	fa-	.	.
.	.	.	.	.	.	8e\	.
4rF	.	4G/	fa-	.	.	4.d\	.
4Gny\	per	4G/	-cta	4B\	-cta	.	.
.	.	.	.	.	.	8d\	-cta
=27-	=27-	=27-	=27-	=27-	=27-	=27-	=27-
2C/	quem	4c\	s(un)t	4c\	ſunt	4e,<\	sunt
.	.	4c\	per	4c\	per	4e\	per
4r	.	4F/	qu(em)	4A/	quem	4f\	qu(em)
*	*	*	*	*	*ij	*	*
4F\	per	4A/	p(er)	4c\	per	4f\	per
4C/	quem	4G/	qu(em)	4c\	quem	4e\	qu(em)
*	*	*	*	*	*Xij	*	*
!	!	!	!	!	!	!LO:SIC:v:t=custos e	!
4.C/	o-	4.G/	o-	4.c\	o-	4e\	o-
!	!	!	!	!	!	!LO:LB:g=original	!
.	.	.	.	.	.	4e\	-mni-
8C/	-mni-	8G/	-mni-	8c\	-mni-	.	.
4AA/	-a	4c\	-a	4c\	-a	4f\	-a
=28-	=28-	=28-	=28-	=28-	=28-	=28-	=28-
2BB-X/	fa-	(>4.B-X\	fa-	2d\	fa-	8d\L	fa-
.	.	.	.	.	.	8e\J	.
.	.	.	.	.	.	2f\	.
.	.	8A/)	.	.	.	.	.
2C/	-cta	4.G/	.	2c\	-cta	.	.
.	.	.	.	.	.	4e\	-cta
.	.	8G/	-cta	.	.	.	.
4FF/	ſunt	2A/	ſunt.	4c\	ſunt	4f,<\	ſunt
4F\	qui	.	.	4A/	q(ui)	4a\	qui
2A\	pro-	4r	.	2c\	p(ro)-	2f\	pro-
.	.	4F/	qui	.	.	.	.
=29-	=29-	=29-	=29-	=29-	=29-	=29-	=29-
2.F\	-pter	2A/	pro-	2c\	-pt(er)	2f\	-pt(er)
.	.	4F/	-pter	2c\	qui	2f\	qui
*	*	*	*ij	*	*	*	*
4F\	qui	4A/	qui	.	.	.	.
!	!	!	!	!LO:SIC:v:t=custos d	!	!	!
2BB-X/	p(ro)-	2B-X\	pro-	2d\	pro-	2f\	pro-
!	!	!	!	!LO:LB:g=original	!	!	!
4BB-/	-pter	4B-\	-pter	4d\	-pter	4f\	-pter
*	*	*	*Xij	*	*	*	*
4AA/	nos	4c\	nos	4c\	nos	4f\	nos
=30-	=30-	=30-	=30-	=30-	=30-	=30-	=30-
2.BB-X/	ho-	2.d\	ho-	4c\	ho-	2.f\	ho-
.	.	.	.	8B-X\L	.	.	.
.	.	.	.	8A\J	.	.	.
.	.	.	.	4.B-\	.	.	.
4BB-/	-mi-	4d\	-mi-	.	.	4f\	-mi-
.	.	.	.	8B-\	-mi-	.	.
4FF/	-nes	1c	-nes	2A/	-nes	4f,<\	-nes
4F\	et	.	.	.	.	4a\	et
4F\	p(ro)-	.	.	2r	.	4a\	p(ro)-
4E\	-p(te)r	.	.	.	.	4g\	-pter
=31-	=31-	=31-	=31-	=31-	=31-	=31-	=31-
2D/	no-	4r	.	0r	.	(>2f\	no-
.	.	4d\	et	.	.	.	.
4AA/	-ſtr(am)	4d\	p(ro)-	.	.	2e\)	.
*	*ij	*	*	*	*	*	*
4A\	et	4c\	-pter	.	.	.	.
!	!	!LO:SIC:v:t=custos A	!	!	!	!	!
4A\	p(ro)-	2Bny\	no-	.	.	4e\	-ſtr(am)
!LO:SIC:v:t=custos F	!	!	!	!	!	!	!
4G\	-p(te)r	.	.	.	.	2e\	Sa-
!LO:LB:g=original	!	!LO:LB:g=original	!	!	!	!	!
2F\	no-	4A/	-ſtram	.	.	.	.
.	.	2A/	no-	.	.	4d\	.
=32-	=32-	=32-	=32-	=32-	=32-	=32-	=32-
4E\	-ſtr(am)	.	.	4r	.	4c/	.
*	*Xij	*	*	*	*	*	*
4E\	et	4.G/	-ſtr(am)	4e\	et	4B/	.
4C/	pro-	.	.	4e\	pro-	4c/	-lu-
.	.	8A/	Sa-	.	.	.	.
4BBny/	-pter	4B\	-lu-	4d\	-pter	4d\	-tem
(<4.AA/	no-	4.c\	-t(em)	2.c\	no-	8e\	no-
.	.	.	.	.	.	8e\	-ſtram
.	.	.	.	.	.	2a\	Sa-
8GG/)	.	8e\	no-	.	.	.	.
4FF/	.	4f\	-ſtr(am)	.	.	.	.
8GG/	-ſtram	4d\	Sa-	8Bny\	-ſtram	2g\	.
8GG/	Sa-	.	.	8B\	Sa-	.	.
=33-	=33-	=33-	=33-	=33-	=33-	=33-	=33-
2D/	-lu-	2d\	-lu-	2A/	-lu-	.	.
!	!	!	!	!	!	!LO:TX:t=P:problem:♯above	!
.	.	.	.	.	.	4f#Xi\	-lu-
4GG/	-tem	4d\	-tem	4B\	-tem	2g\	-tem
4G\	de-	2B\	de-	4d\	de-	.	.
!	!	!	!	!	!	!LO:SIC:v:t=custos g	!
4E\	-ſcen-	.	.	2c\	-ſcen-	2r	.
8F#X\	-dit	2A/	-ſcen-	.	.	.	.
8F#\	de	.	.	.	.	.	.
!	!	!	!	!	!	!LO:LB:g=original	!
8G\L	cae-	.	.	4B\	-dit	4r	.
8F#\	.	.	.	.	.	.	.
8E\	.	8G/	-dit	4B\	de-	2g\	de-
*	*	*	*ij	*	*	*	*
8D\J	.	8G/	de-	.	.	.	.
=34-	=34-	=34-	=34-	=34-	=34-	=34-	=34-
4C/	.	2A/	-ſcen-	4e\	-ſcen-	.	.
4D/	.	.	.	8d\L	.	2fny\	-ſcen-
.	.	.	.	8c\J	.	.	.
2GG/	.	2.G/	-dit	2B\	.	.	.
.	.	.	.	.	.	8e\	-dit
.	.	.	.	.	.	8d\	de
1AA	.	.	.	4.A/	-dit	4c#X/	coe-
*	*	*	*Xij	*	*	*	*
.	.	4F/	de	.	.	2d\	.
.	.	.	.	8A/	de	.	.
.	.	2E/	cae-	2A/	cae-	.	.
.	.	.	.	.	.	4c#/	.
=35-	=35-	=35-	=35-	=35-	=35-	=35-	=35-
!LO:TX:a:t=P:problem:very like terminal long	!	!	!	!	!	!LO:TX:a:t=P:problem:very like terminal long	!
0Dl	-lis	0F#X;>	-lis	0A;<	-lis.	0dl	-lis
!LO:PB:g=original	!	!LO:PB:g=original	!	!LO:LB:g=original	!	!	!
=36-	=36-	=36-	=36-	=36-	=36-	=36-	=36-
*clefF4	*	*clefC4	*	*	*	*	*
*M2/1	*	*M2/1	*	*M2/1	*	*M2/1	*
*met(C|)	*	*met(C|)	*	*met(C|)	*	*met(C|)	*
!	!	!	!	!LO:TX:t=P:problem:w źródle przed metrum inicjał E	!	!LO:TX:t=P:problem:w źródle przed metrum inicjał E	!
!LO:TX:t=P:problem:w źródle przed metrum inicjał E	!	!LO:TX:t=P:problem:w źródle przed metrum inicjał E	!	!	!	!	!
!LO:TX:t=P:problem:met(C|)	!	!LO:TX:t=P:problem:met(C|)	!	!LO:TX:t=P:problem:met(C|)	!	!LO:TX:t=P:problem:met(C|)	!
00r	.	00r	.	2r	.	1d	ET
.	.	.	.	1d	ET	.	.
.	.	.	.	.	.	2.e\	in-
.	.	.	.	1c\	in-	.	.
.	.	.	.	.	.	4e\	-car-
=37-	=37-	=37-	=37-	=37-	=37-	=37-	=37-
.	.	.	.	.	.	2f#X\	-na-
.	.	.	.	2B\	-car-	1g	.
.	.	.	.	2.A/	-na-	.	.
.	.	.	.	.	.	2f#\	-tus
.	.	.	.	4A/	-tus	.	.
=38-	=38-	=38-	=38-	=38-	=38-	=38-	=38-
!LO:TX:t=P:problem:w źródle brak pauzy 2r	!	!	!	!	!	!	!
2ryy	.	1r	.	1Gny	eſt	1g	est
1GG	ET	.	.	.	.	.	.
.	.	1G	ET	00r	.	00r	.
2.AA/	in-	.	.	.	.	.	.
=39-	=39-	=39-	=39-	=39-	=39-	=39-	=39-
.	.	1Fny	in-	.	.	.	.
4AA/	-car-	.	.	.	.	.	.
2BB/	-na-	.	.	.	.	.	.
1C	.	2E/	-car-	.	.	.	.
.	.	2.D/	-na-	.	.	.	.
=40-	=40-	=40-	=40-	=40-	=40-	=40-	=40-
2BB/	-tus	.	.	.	.	.	.
.	.	4D/	-tus	.	.	.	.
1C	eſt	1C	est	.	.	.	.
.	.	.	.	1c	de	1e	de
!	!	!LO:N:vis=0	!	!	!	!	!
1C/	de	1.r	.	.	.	.	.
=41-	=41-	=41-	=41-	=41-	=41-	=41-	=41-
.	.	.	.	2.d\	Spi-	2.fny\	Spi-
1BB-X	Spi-	.	.	.	.	.	.
.	.	.	.	4d\	-ri-	4f\	-ri-
.	.	2r	.	2e\	-tu	2g\	-tu
*	*	*	*	*	*	*	*ij
2AA/	.	2F/	de	1f\	San-	2cny/	de
=42-	=42-	=42-	=42-	=42-	=42-	=42-	=42-
2.GG/	.	2.G/	Spi-	.	.	2.B-X/	Spi-
.	.	.	.	2e\	.	.	.
4GG/	-ri-	4G/	-ri-	.	.	4B-/	-ri-
1FF	-tu	4A/	-tu	2.f\	.	1A	-tu
.	.	4B-X\	.	.	.	.	.
.	.	1c\	San-	.	.	.	.
.	.	.	.	4e\	.	.	.
*	*	*	*	*	*	*	*Xij
=43-	=43-	=43-	=43-	=43-	=43-	=43-	=43-
!	!	!	!	!	!	!LO:SIC:v:t=custos e	!
1GG	San-	.	.	4d\	.	1rc	.
.	.	.	.	4c\	.	.	.
!	!	!LO:TX:t=P:problem:♯above	!	!	!	!	!
!	!	!LO:TX:a:t=P:w źródle krzyżyk w funkcji kasownika:problem	!	!	!	!	!
!	!	!LO:N:acc=#	!	!	!	!	!
.	.	2Bni\	.	2d\	.	.	.
!	!	!	!	!	!	!LO:LB:g=original	!
4C/	-cto	4c\	-cto	4c\	-cto	2.e\	ex
2C/	Ex	2G/	Ex	2c\	ex	.	.
4BB-X/	Ma-	4G/	Ma-	4d\	Ma-	4g\	Ma-
=44-	=44-	=44-	=44-	=44-	=44-	=44-	=44-
2AA/	-ri-	2A/	-ri-	2c\	-ri-	2f#X\	-ri-
2GG/	-a	2B-X\	-a	2d\	-a	4g\	-a
.	.	.	.	.	.	2g\	Vir-
2.AA/	Vir-	2.c\	Vir-	2.A/	Vir-	.	.
.	.	.	.	.	.	8f#X\L	.
.	.	.	.	.	.	8e\J	.
.	.	.	.	.	.	4.f#\	.
4AA/	-gi-	4c\	-gi-	4A/	-gi-	.	.
.	.	.	.	.	.	8f#\	-gi-
=45-	=45-	=45-	=45-	=45-	=45-	=45-	=45-
!	!	!LO:TX:t=P:problem:♯above	!	!	!	!	!
!	!	!LO:TX:a:t=P:w źródle krzyżyk w funkcji kasownika:problem	!	!	!	!	!
!	!	!LO:N:acc=#	!	!	!	!	!
2GG/	-ne	2Bni\	-ne	4D/	-ne	1g,<	-ne
.	.	.	.	4d\	Et	.	.
4r	.	2r	.	2B\	Ho-	.	.
4G\	et	.	.	.	.	.	.
2E\	Ho-	2rG	.	4G/	-mo	2g\	et
!	!	!	!	!LO:SIC:v:t=custos c	!	!	!
.	.	.	.	4G/	et	.	.
!	!	!	!	!LO:LB:g=original	!	!	!
4C/	-mo	4r	.	2.c\	Ho-	4.e\	Ho-
!LO:SIC:v:t=custos AA	!	!	!	!	!	!	!
4C/	et	4e\	Et	.	.	.	.
.	.	.	.	.	.	16fny\LL	.
.	.	.	.	.	.	16g\JJ	.
!LO:LB:g=original	!	!	!	!	!	!	!
=46-	=46-	=46-	=46-	=46-	=46-	=46-	=46-
2AA/	Ho-	2c\	Ho-	.	.	1.a	.
.	.	.	.	8d\L	.	.	.
.	.	.	.	8e\J	.	.	.
4FF/	-mo	4A/	-mo	2f\	.	.	.
*	*ij	*	*ij	*	*	*	*
4FF/	et	4c\	Et	.	.	.	.
2Fny\	Ho-	2c\	Ho-	2f\	-mo	.	.
2E-X\	-mo	4c\	.	1c\	fa-	2g\	-mo
.	.	4G/	-mo	.	.	.	.
*	*Xij	*	*Xij	*	*	*	*
=47-	=47-	=47-	=47-	=47-	=47-	=47-	=47-
1.D	fa-	1.d	fa-	.	.	2f#X\	fa-
.	.	.	.	2B-X\	.	1g	.
.	.	.	.	2.A/	.	.	.
2D/	-ctus	2D/	-ct(us)	.	.	2f#\	-ctus
.	.	.	.	4A/	-ctus	.	.
=48-	=48-	=48-	=48-	=48-	=48-	=48-	=48-
!LO:TX:a:t=P:problem:very like terminal long	!	!	!	!	!	!	!
!	!	!	!	!LO:TX:a:t=P:w źródle krzyżyk w funkcji kasownika:problem	!	!	!
!	!	!	!	!LO:N:acc=#	!	!	!
0GGl	est.	0D;>	est.	0Bn;<	eſt	0g;<	est
!	!	!LO:LB:g=original	!	!	!	!	!
=49-	=49-	=49-	=49-	=49-	=49-	=49-	=49-
*M2/1	*	*M2/1	*	*M2/1	*	*M2/1	*
*met(C|)	*	*met(C|)	*	*met(C|)	*	*met(C|)	*
!	!	!	!	!LO:TX:t=P:problem:w źródle przed metrum inicjał C [połączony ze słowem Crucifixus]	!	!LO:TX:t=P:problem:w źródle przed metrum inicjał C [połączony ze słowem Crucifixus]	!
!LO:TX:t=P:problem:w źródle przed metrum inicjał C	!	!LO:TX:t=P:problem:w źródle przed metrum inicjał C	!	!	!	!	!
!LO:TX:t=P:problem:met(C|)	!	!LO:TX:t=P:problem:met(C|)	!	!LO:TX:t=P:problem:met(C|)	!	!LO:TX:t=P:problem:met(C|)	!
!	!	!	!	!LO:TX:b:t=CRucifixus	!	!LO:TX:b:t=CRucifixus	!
1r	.	1.d	CRu-	00r	.	00r	.
1.G	CRu-	.	.	.	.	.	.
.	.	2B\	-ci-	.	.	.	.
=50-	=50-	=50-	=50-	=50-	=50-	=50-	=50-
.	.	2.e\	-fi-	.	.	.	.
2Eny\	-ci-	.	.	.	.	.	.
.	.	4d\	.	.	.	.	.
!	!	!LO:TX:t=P:problem:♯above	!	!	!	!	!
2.A\	-fi-	4c#Xi\	.	.	.	.	.
.	.	4B\	.	.	.	.	.
!	!	!LO:TX:t=P:problem:♯above	!	!	!	!	!
.	.	2c#Xi\	.	.	.	.	.
4G\	.	.	.	.	.	.	.
=51-	=51-	=51-	=51-	=51-	=51-	=51-	=51-
4F#X\	.	2d\	-xus	0r	.	00r	.
4E\	.	.	.	.	.	.	.
2F#\	-xus	4.d\	e-	.	.	.	.
.	.	8cny\	-ti-	.	.	.	.
2G\	e-	2B\	-am	.	.	.	.
4.G\	-ti-	2d\	pro	.	.	.	.
8F#\	-am	.	.	.	.	.	.
=52-	=52-	=52-	=52-	=52-	=52-	=52-	=52-
!	!	!	!	!LO:TX:t=P:problem:kreska pseudotaktowa	!	!	!
4.E\	pro	4c\	.	1r	.	.	.
.	.	4B\	.	.	.	.	.
!LO:TX:t=P:problem:♯above	!	!	!	!	!	!	!
8F#Xi\	no-	.	.	.	.	.	.
2.G\	.	4A/	no-	.	.	.	.
.	.	4G/	.	.	.	.	.
.	.	1A	.	2r	.	.	.
!LO:TX:t=P:problem:♯above	!	!	!	!	!	!	!
8F#Xi\L	.	.	.	.	.	.	.
8E\J	.	.	.	.	.	.	.
!	!	!	!	!LO:TX:t=P:problem:kreska pseudotaktowa	!	!	!
2F#\	.	.	.	2d\	Sub	.	.
=53-	=53-	=53-	=53-	=53	=53	=53-	=53-
!LO:SIC:v:t=custos G	!	!	!	!	!	!	!
1G	-bis	1G	-bis	4G/	Pon-	2r	.
.	.	.	.	4A/	.	.	.
.	.	.	.	4B\	-ti-	2g\	Sub
!	!	!	!	!LO:TX:t=P:problem:kreska pseudotaktowa	!	!	!
.	.	.	.	4c\	.	.	.
!LO:LB:g=original	!	!	!	!	!	!	!
!	!	!LO:TX:a:i:t=5.	!	!	!	!	!
0r	.	00r	.	4d\	-o	2.fny\	Pon-
.	.	.	.	4A/	Pi-	.	.
.	.	.	.	2.d\	-la-	.	.
.	.	.	.	.	.	4f\	-ti-
=54-	=54-	=54-	=54-	=54-	=54-	=54-	=54-
.	.	.	.	.	.	2e\	-o
.	.	.	.	4G/	.	.	.
!	!	!	!	!	!	!LO:TX:a:t=P:W źródle wyblakła kreska oddechu [nieprzyjęta w kodzie]:problem	!
!	!	!	!	!	!	!LO:SIC:v:t=custos e	!
.	.	.	.	1c	.	2e\	Pi-
!	!	!	!	!	!	!LO:LB:g=original	!
1.G	Cru-	.	.	.	.	2e\	-la-
.	.	.	.	4B\	.	4d\	.
!	!	!	!	!LO:TX:t=P:problem:kreska pseudotaktowa	!	!	!
.	.	.	.	4A/	.	4c/	.
=55-	=55-	=55-	=55-	=55	=55	=55-	=55-
.	.	.	.	1B	.	4d\	.
.	.	.	.	.	.	8e\L	.
.	.	.	.	.	.	8f\J	.
2E\	-ci-	.	.	.	.	4g\	.
.	.	.	.	.	.	4f\	.
2.A\	-fi-	1r	.	2c\	-to	4e\	.
.	.	.	.	.	.	4d\	.
.	.	.	.	2c\	Pi-	2e\	.
4G\	.	.	.	.	.	.	.
=56-	=56-	=56-	=56-	=56-	=56-	=56-	=56-
!	!	!	!	!LO:SIC:v:t=custos G	!	!	!
4F#X\	.	2r	.	1A	-la-	1d	.
4E\	.	.	.	.	.	.	.
2F#\	.	4.d\	e-	.	.	.	.
.	.	8c\	-ti-	.	.	.	.
!	!	!	!	!LO:LB:g=original	!	!	!
2G\	-xus	2B\	-am	2G/	-to	2d\	-to
!	!	!	!	!LO:TX:t=P:problem:kreska pseudotaktowa	!	!	!
4.G\	e-	4.B\	e-	2d\	Pi-	2r	.
8Fny\	-ti-	8A/	-ti-	.	.	.	.
=57-	=57-	=57-	=57-	=57	=57	=57-	=57-
4E\	-am	4G/	-am	1.e	-la-	1g	Sub
4D/	.	4F/	pro	.	.	.	.
4C/	pro-	4E/	no-	.	.	.	.
4BBny/	-no-	8F/L	.	.	.	.	.
.	.	8G/J	.	.	.	.	.
(<2AA/	.	2A/	.	.	.	2.f\	Pon-
2BB/)	.	2d\	.	2.d\	.	.	.
.	.	.	.	.	.	4f\	-ti-
=58-	=58-	=58-	=58-	=58-	=58-	=58-	=58-
2C/	-bis	0G	-bis	.	.	1e	-o
.	.	.	.	8c\L	.	.	.
.	.	.	.	8B\J	.	.	.
2C/	Sub	.	.	1c	.	.	.
4GG/	Pon-	.	.	.	.	2d\	Pi-
4AA/	.	.	.	.	.	.	.
!	!	!	!	!LO:TX:t=P:problem:kreska pseudotaktowa	!	!	!
4BB/	.	.	.	2B\	.	1g\	-la-
4C/	-ti-	.	.	.	.	.	.
=59-	=59-	=59-	=59-	=59	=59	=59-	=59-
!	!	!LO:SIC:v:t=custos A	!	!	!	!	!
4D/	-o	1rB	.	1A	.	.	.
4AA/	Pi-	.	.	.	.	.	.
1D	-la-	.	.	.	.	2f\	.
!	!	!LO:LB:g=original	!	!	!	!	!
!	!	!	!	!LO:TX:t=P:problem:kreska pseudotaktowa	!	!	!
.	.	2r	.	1A	-to	1e	.
2C#X/	.	2A/	Sub	.	.	.	.
=60-	=60-	=60-	=60-	=60	=60	=60-	=60-
!	!	!	!	!LO:TX:t=P:problem:kreska pseudotaktowa	!	!	!
2D/	-to	4D/	Pon-	1r	.	4f\	.
.	.	4E/	.	.	.	4e\	.
2D/	Pi-	4F/	-ti-	.	.	4d\	.
.	.	4G/	.	.	.	8c\L	.
.	.	.	.	.	.	8Bny\J	.
0AA	-la-	4A/	-o	2e\	Sub	4c\	.
.	.	4B\	Pi-	.	.	4d\	.
.	.	4c#X\	.	4.A\	Pon-	2e\	.
.	.	4d\	.	.	.	.	.
!	!	!	!	!LO:TX:t=P:problem:kreska pseudotaktowa	!	!	!
.	.	.	.	8B\	-ti-	.	.
=61-	=61-	=61-	=61-	=61	=61	=61-	=61-
.	.	4e\	-la-	8c#X\	-o	4.A/	-to
.	.	.	.	8A\	Pi-	.	.
.	.	4f\	.	2d\	-la-	.	.
.	.	.	.	.	.	8a\	Pi-
.	.	2e\	.	.	.	2a\	-la-
!	!	!	!	!LO:TX:t=P:problem:kreska pseudotaktowa	!	!	!
!	!	!	!	!LO:TX:t=P:problem:♯above	!	!	!
.	.	.	.	4c#Xi\	.	.	.
1D	-to	1d	-to	1d	-to	1f#X	-to
=62-	=62-	=62-	=62-	=62-	=62-	=62-	=62-
4GG/	Paſ-	2r	.	0r	.	2r	.
4AA/	.	.	.	.	.	.	.
4BB-X/	.	1B-X	Paſ-	.	.	1g	Paſ-
4GG/	.	.	.	.	.	.	.
!LO:SIC:v:t=custos D	!	!	!	!	!	!	!
1D	-sus	.	.	.	.	.	.
!	!	!	!	!	!	!LO:TX:a:t=P:problem:w źródle dwa krzyżyki przy nucie 4f#	!
!	!	!	!	!	!	!LO:TX:t=P:problem:♯below	!
!	!	!	!	!	!	!LO:TX:t=P:problem:♯above	!
.	.	(<4A/	.	.	.	4f#X\	.
!	!	!	!	!	!	!LO:TX:a:t=P:W źródle krzyżyk w funkcji kasownika:problem	!
!	!	!	!	!	!	!LO:N:acc=#	!
!	!	!	!	!	!	!LO:TX:t=P:problem:♯below	!
.	.	4G/)	.	.	.	4en\	.
!LO:LB:g=original	!	!	!	!	!	!	!
=63-	=63-	=63-	=63-	=63-	=63-	=63-	=63-
!	!	!	!	!LO:TX:t=P:problem:kreska pseudotaktowa	!	!	!
!	!	!	!	!	!	!LO:TX:t=P:problem:♯above	!
!	!	!	!	!	!	!LO:SIC:v:t=custos a	!
1D	Paſ-	1A	-sus	1r	.	1f#X	-sus
!	!	!	!	!	!	!LO:PB:g=original	!
4BB-X/	.	2r	.	1.B-X	Paſ-	0r	.
4Cny/	.	.	.	.	.	.	.
4D/	.	1d\	Paſ-	.	.	.	.
4BB-/	.	.	.	.	.	.	.
=64-	=64-	=64-	=64-	=64-	=64-	=64-	=64-
1F	.	.	.	.	.	.	.
.	.	(>4cny\	.	4A/	.	.	.
!	!	!	!	!LO:TX:t=P:problem:kreska pseudotaktowa	!	!	!
.	.	4B-X\)	.	4G/	.	.	.
!	!	!	!	!LO:TX:t=P:problem:kreska pseudotaktowa	!	!	!
2FF/	-sus	1c	-sus	1A	-sus	2r	.
1F\	et	.	.	.	.	1a\	Paſ-
=65-	=65-	=65-	=65-	=65	=65	=65-	=65-
.	.	1r	.	1c	et	.	.
2E\	ſe-	.	.	.	.	2g\	-sus
*lig	*	*	*	*	*	*	*
!LO:TX:a:t=P:w źródle prawdopodobnie # pod nuta 1D:problem	!	!	!	!	!	!	!
1D	-pul-	1.A	et	1d	ſe-	1fny	et
=66-	=66-	=66-	=66-	=66-	=66-	=66-	=66-
1C	.	.	.	1e	-pul-	1.e	Se-
.	.	2G/	ſe-	.	.	.	.
*Xlig	*	*	*	*	*	*	*
!	!	!	!	!LO:TX:t=P:problem:kreska pseudotaktowa	!	!	!
1D	.	1.F	-pul-	1A	-tus	.	.
.	.	.	.	.	.	1d\	-pul-
=67-	=67-	=67-	=67-	=67-	=67-	=67-	=67-
!	!	!	!	!LO:TX:a:t=P:terminal long:problem	!	!	!
!	!	!	!	!LO:SIC:v:t=custos d	!	!	!
1.AA	.	.	.	0Al	est.	.	.
!	!	!	!	!	!	!LO:TX:t=P:problem:♯below	!
.	.	4E/	.	.	.	4c#Xi/	.
.	.	4D/	.	.	.	4B/	.
.	.	2E/	.	.	.	2.c#/	.
2AA/	-tus	2E/	-tus	.	.	.	.
.	.	.	.	.	.	4c#/	-t(us)
=68-	=68-	=68-	=68-	=68-	=68-	=68-	=68-
!LO:TX:a:t=P:problem:very like terminal long	!	!	!	!	!	!	!
!	!	!	!	!	!	!LO:TX:t=P:problem:fermata above/below	!
0Dl	eſt.	0F#X;>	est.	0A	.	0d;;	est.
!	!	!LO:LB:g=original	!	!LO:LB:g=original	!	!	!
=69-	=69-	=69-	=69-	=69-	=69-	=69-	=69-
*M3/1	*	*M3/1	*	*M3/1	*	*M3/1	*
!	!	!	!	!LO:TX:t=P:problem:w źródle przed metrum inicjał E	!	!LO:TX:t=P:problem:w źródle przed metrum inicjał E	!
!LO:TX:t=P:problem:w źródle przed metrum inicjał E	!	!LO:TX:t=P:problem:w źródle przed metrum inicjał E	!	!	!	!	!
!	!	!	!	!LO:TX:t=P:problem:met(C|) przed M3/1	!	!LO:TX:t=P:problem:met(C|) przed M3/1	!
!LO:TX:t=P:problem:met(C|) przed M3/1	!	!LO:TX:t=P:problem:met(C|) przed M3/1	!	!	!	!	!
1D	ET	1d	ET	1d	ET	1f#X	ET
1BBny	re-	1Bny	re-	1.d	re-	1g	re-
1FF#X	-ſur-	1A	-ſur-	.	.	1a	-ſur-
.	.	.	.	2d\	-ſur-	.	.
=70-	=70-	=70-	=70-	=70-	=70-	=70-	=70-
0.GG	-re-	0.B	-re-	0.d	-re-	1a	-re-
.	.	.	.	.	.	2g\	.
!	!	!	!	!	!	!LO:TX:t=P:problem:♯above	!
.	.	.	.	.	.	2f#Xi\	.
.	.	.	.	.	.	1g	.
=71-	=71-	=71-	=71-	=71-	=71-	=71-	=71-
0.D	-xit	0.A	-xit	0.d	-xit	0.f#X	-xit
=72-	=72-	=72-	=72-	=72-	=72-	=72-	=72-
*	*ij	*	*ij	*	*ij	*	*ij
1G	Et	1B	Et	1d	Et	1g	Et
1E	re-	1c	re-	1e	re-	1.g	re-
1BB	-ſur-	1d	-ſur-	1d	-ſur-	.	.
.	.	.	.	.	.	2g\	-ſur-
=73-	=73-	=73-	=73-	=73-	=73-	=73-	=73-
!LO:SIC:v:t=custos G	!	!	!	!	!	!	!
0.C	-re-	1d	-re-	0.e	-re-	0.g	-re-
.	.	2c\	.	.	.	.	.
.	.	2B\	.	.	.	.	.
.	.	1c	.	.	.	.	.
!LO:LB:g=original	!	!	!	!	!	!	!
=74-	=74-	=74-	=74-	=74-	=74-	=74-	=74-
*M2/1	*	*M2/1	*	*M2/1	*	*M2/1	*
*met(C|)	*	*met(C|)	*	*met(C|)	*	*met(C|)	*
!LO:TX:t=P:problem:met(C|)	!	!LO:TX:t=P:problem:met(C|)	!	!LO:TX:t=P:problem:met(C|)	!	!LO:TX:t=P:problem:met(C|)	!
4G,<\	-xit	4B,<\	-xit	4d\	-xit	4g\	-xit
*	*Xij	*	*Xij	*	*Xij	*	*Xij
4.G\	ter-	4.B\	ter-	4.d\	ter-	4.g\	ter-
8G\	-ti-	8B\	-ti-	8d\	-ti-	8g\	-ti-
!	!	!	!	!	!	!LO:SIC:v:t=custos a	!
4E\	-a	4c\	-a	4e\	-a	4g\	-a
!	!	!	!	!	!	!LO:LB:g=original	!
(>2F\	di-	4.f\	di-	8A\L	.	(>2a\	di-
.	.	.	.	8B\J	.	.	.
.	.	.	.	2c\	di-	.	.
.	.	8e\L	.	.	.	.	.
2G\)	.	8d\	.	.	.	2g\)	.
.	.	8c\J	.	.	.	.	.
.	.	4d\	.	4B\	.	.	.
=75-	=75-	=75-	=75-	=75-	=75-	=75-	=75-
4C/	-e	4e\	-e	2c\	-e	2g,<\	-e
4c\	Se-	4e\	Se-	.	.	.	.
4c\	-cun-	4e\	-cun-	2rc	.	2g\	Se-
8B\	-dum	8d\	-dum	.	.	.	.
8A\	Scri-	8c\	Scri-	.	.	.	.
2.G\	-ptu-	4.B\	-ptu-	4r	.	4g\	-cun-
!	!	!	!	!	!	!LO:TX:t=P:problem:♯above	!
.	.	.	.	4B\	Se-	8f#Xi\L	.
.	.	8c\	.	.	.	8e\J	.
.	.	(>2d\	.	4B\	-cun-	4d\	.
8F#X\L	.	.	.	8A/	-dum	8e\	-dum
8E\J	.	.	.	8G/	Scri-	8e\	Scri-
=76-	=76-	=76-	=76-	=76-	=76-	=76-	=76-
*M1/1	*	*M1/1	*	*M1/1	*	*M1/1	*
!	!	!	!	!	!	!LO:TX:a:t=P:problem:w źródle nie występuję taka zmiana metrum [utwór przechodzi bezpośrednio na 3/1 w następnym takcie]; przyjęte w kodzie dla zachowania podziału zapisu	!
!	!	!	!	!LO:TX:a:t=P:problem:w źródle nie występuję taka zmiana metrum [utwór przechodzi bezpośrednio na 3/1 w następnym takcie]; przyjęte w kodzie dla zachowania podziału zapisu	!	!	!
!	!	!LO:TX:a:t=P:problem:w źródle nie występuję taka zmiana metrum [utwór przechodzi bezpośrednio na 3/1 w następnym takcie]; przyjęte w kodzie dla zachowania podziału zapisu	!	!	!	!	!
!LO:TX:a:t=P:problem:w źródle nie występuję taka zmiana metrum [utwór przechodzi bezpośrednio na 3/1 w następnym takcie]; przyjęte w kodzie dla zachowania podziału zapisu	!	!	!	!	!	!	!
!	!	!LO:SIC:v:t=custos d	!	!	!	!	!
1D	.	1d)	.	1A	-ptu-	4f#X\	-ptu-
.	.	.	.	.	.	2g\	.
.	.	.	.	.	.	4f#\	.
!	!	!LO:LB:g=original	!	!	!	!	!
=77-	=77-	=77-	=77-	=77-	=77-	=77-	=77-
*M3/1	*	*M3/1	*	*M3/1	*	*M3/1	*
!	!	!LO:TX:a:t=P:w źródle metrum M3/1 jest zapisane podwójnie (na początku tej i na końcu poprzedniej pięciolinii):problem	!	!	!	!	!
0.GG	-ras	1d	-ras	0.B	-ras	0.g	-ras
.	.	1.G	Et	.	.	.	.
.	.	2G/	a-	.	.	.	.
=78-	=78-	=78-	=78-	=78-	=78-	=78-	=78-
1r	.	2d\	-ſcen-	1r	.	0.r	.
.	.	2e\	.	.	.	.	.
1GG	Et	2d\	.	1B	Et	.	.
.	.	2c\	.	.	.	.	.
!	!	!	!	!LO:SIC:v:t=custos e	!	!	!
1GG	a-	2B\	.	1B	a-	.	.
.	.	2A/	.	.	.	.	.
!	!	!	!	!LO:PB:g=original	!	!	!
=79-	=79-	=79-	=79-	=79-	=79-	=79-	=79-
2C/	-ſcen-	1G	.	2e\	-ſcen-	1r	.
2D/	.	.	.	2f\	.	.	.
2C/	.	1G	-dit	2e\	.	1.e	Et
2BB/	.	.	.	2d\	.	.	.
2AA/	.	1A	in	2c\	.	.	.
2GG/	.	.	.	2B\	.	2e\	a-
=80-	=80-	=80-	=80-	=80-	=80-	=80-	=80-
1FFny	.	1A	cae-	1.A	.	2a\	-ſcen-
.	.	.	.	.	.	2b\	.
1FF	-dit	1A,<	-l(um)	.	.	2a\	.
.	.	.	.	4B\	.	2g\	.
.	.	.	.	4c\	.	.	.
1FF	a-	1A	a-	2d\	.	2fny\	.
.	.	.	.	2c\	.	2e\	.
=81-	=81-	=81-	=81-	=81-	=81-	=81-	=81-
2GG/	-ſcen-	2B\	-ſcen-	1B	.	1d	.
2AA/	.	2c\	.	.	.	.	.
2BB/	.	2d\	.	1B	-dit	1d	-dit
2GG/	.	2c\	.	.	.	.	.
2G\	.	2B\	.	1B	a-	1d	a-
!LO:SIC:v:t=custos E	!	!	!	!	!	!	!
2Fny\	.	2A/	.	.	.	.	.
!LO:LB:g=original	!	!	!	!	!	!	!
=82-	=82-	=82-	=82-	=82-	=82-	=82-	=82-
1E	.	1G	.	2e\	-ſcen-	2g\	-ſcen-
.	.	.	.	2f\	.	2a\	.
1E	-dit	1G	-dit	2e\	.	2g\	.
.	.	.	.	2d\	.	2f\	.
1E	a-	1G	in	2c\	.	2g\	.
.	.	.	.	2B\	.	2f\	.
=83-	=83-	=83-	=83-	=83-	=83-	=83-	=83-
2A\	-ſcen-	0A	cae-	1A	.	1e	.
2.B-X\	.	.	.	.	.	.	.
.	.	.	.	1A	-dit	1e	-dit
4A\	.	.	.	.	.	.	.
2G\	.	.	.	.	.	.	.
!	!	!	!	!	!	!LO:SIC:v:t=custos f	!
2F\	.	1A	-l(um)	1A	a-	1e	a-
2E\	.	.	.	.	.	.	.
!	!	!	!	!	!	!LO:LB:g=original	!
=84-	=84-	=84-	=84-	=84-	=84-	=84-	=84-
!	!	!LO:TX:t=P:problem:pominięty fragment [lub mocno wyblakły]	!	!	!	!	!
1D	.	0.ryy	.	1d	-ſcen-	1f	-ſcen-
!	!	!	!	!LO:TX:t=P:problem:♯above	!	!	!
1AA	-dit	.	.	1c#Xi	-dit	1e	-dit
1BB-X	in	.	.	1d	in	1g	in
=85-	=85-	=85-	=85-	=85-	=85-	=85-	=85-
0.AA	cae-	1r	.	1d	coe-	1f	cae-
!	!	!	!	!LO:TX:t=P:problem:♯above	!	!	!
.	.	1r	.	2c#Xi\	.	2e\	.
.	.	.	.	2B\	.	2d\	.
.	.	1A	ſe-	1c#	.	1e	.
=86-	=86-	=86-	=86-	=86-	=86-	=86-	=86-
0D	-lum	1.F#X	-det	0.d	-lum	0.d	-lum
.	.	2E/	.	.	.	.	.
1D	ſe-	(<2F#X/	ad	.	.	.	.
.	.	2G/)	.	.	.	.	.
=87-	=87-	=87-	=87-	=87-	=87-	=87-	=87-
(<1.AA	-det	2A/	dex-	0.r	.	1r	.
.	.	2B\	.	.	.	.	.
.	.	2c\	.	.	.	1r	.
!	!	!LO:SIC:v:t=custos c	!	!	!	!	!
2GG/)	.	2B\	.	.	.	.	.
!	!	!LO:LB:g=original	!	!	!	!	!
(<2AA/	ad	2c\	.	.	.	1a	ſe-
2BBny/)	.	2d\	.	.	.	.	.
=88-	=88-	=88-	=88-	=88-	=88-	=88-	=88-
0C	dex-	0e	-te-	1r	.	(>1.e	-det
.	.	.	.	1r	.	.	.
.	.	.	.	.	.	2d\)	.
!	!	!	!	!LO:SIC:v:t=custos B	!	!	!
1C	-te-	1e	-ram	1cny	ſe-	(>2.e\	ad
.	.	.	.	.	.	4f\)	.
!	!	!	!	!LO:LB:g=original	!	!	!
=89-	=89-	=89-	=89-	=89-	=89-	=89-	=89-
0GG,<	-ram	0d	ad	(>1.B	-det	0g	dex-
.	.	.	.	2A\)	.	.	.
1G	ſe-	1B	dex-	(>2.B\	ad	1g	-te-
.	.	.	.	4c\)	.	.	.
=90-	=90-	=90-	=90-	=90-	=90-	=90-	=90-
(<1.D	-det	0A	-te-	0d	dex-	(>1.f	-ram
2C/)	.	.	.	.	.	2e,<\)	.
(<2D/	ad	1A	-r(am)	1d	-te-	(>2f\	ad
2E\)	.	.	.	.	.	2g\)	.
=91-	=91-	=91-	=91-	=91-	=91-	=91-	=91-
*	*	*	*	*col	*	*	*
1.F	dex-	0.A	Pa-	0c	-ram	0a	dex-
2F\	-te-	.	.	.	.	.	.
!LO:TX:b:i:t=Patris	!	!	!	!	!	!	!
!LO:SIC:v:t=custos G	!	!	!	!	!	!	!
1D	-r(am)	.	.	0d	Pa-	1f	-te-
!LO:PB:g=original	!	!	!	!	!	!	!
=92-	=92-	=92-	=92-	=92-	=92-	=92-	=92-
*col	*	*col	*	*	*	*col	*
1GG	Pa-	(>1B-X	.	.	.	1g	-r(am)
*	*	*Xcol	*	*	*	*	*
!	!	!	!	!LO:TX:t=P:problem:♯below	!	!LO:TX:a:i:t=e	!
0AA	.	0A)	.	0c#X	.	0e	Pa-
*Xcol	*	*	*	*Xcol	*	*Xcol	*
=93-	=93-	=93-	=93-	=93-	=93-	=93-	=93-
!	!	!	!	!	!	!LO:TX:t=P:problem:♯below	!
0D,<	-tris.	0.A	-tris	0d,<	-tris,	0f#Xi	-tris
1D	Et	.	.	1d	Et	1g	et
=94-	=94-	=94-	=94-	=94-	=94-	=94-	=94-
1.E	i-	0.r	.	1.B	i-	1.g	i-
2E/	-te-	.	.	2B\	-te-	2g\	-te-
1C	-rum	.	.	1cny	-rum	2e\	-r(um)
!	!	!	!	!	!	!LO:TX:t=P:problem:♯above	!
.	.	.	.	.	.	2f#Xi\	Ven-
=95-	=95-	=95-	=95-	=95-	=95-	=95-	=95-
1E	Ven-	1r	.	1B	Ven-	0g	-tu-
1C	-tu-	1r	.	1.A	-tu-	.	.
!	!	!	!	!	!	!LO:TX:t=P:problem:♯above	!
1D	-rus	1d	cum	.	.	1f#Xi	-rus
.	.	.	.	2A/	-rus	.	.
=96-	=96-	=96-	=96-	=96-	=96-	=96-	=96-
!	!	!	!	!	!	!LO:SIC:v:t=custos g	!
0GG	eſt	1d	glo-	0.B	est	0.g	eſt
.	.	2d\	-ri-	.	.	.	.
.	.	2c\	-a	.	.	.	.
1G	cum	2.Bny\	iu-	.	.	.	.
.	.	4A/	-di-	.	.	.	.
!	!	!	!	!	!	!LO:LB:g=original	!
=97-	=97-	=97-	=97-	=97-	=97-	=97-	=97-
1G	glo-	2.G/	-ca-	1r	.	1r	.
.	.	4A/	.	.	.	.	.
2G\	-ri-	2.B\	.	1r	.	1r	.
2F\	-a	.	.	.	.	.	.
.	.	4A/	.	.	.	.	.
2.E\	iu-	2.G/	.	1e	cum	1g	cum
4D/	-di-	4Fny/	.	.	.	.	.
=98-	=98-	=98-	=98-	=98-	=98-	=98-	=98-
0C	-ca-	0E	.	1e	glo-	1g	glo-
.	.	.	.	2e\	-ri-	2g\	-ri-
.	.	.	.	2d\	-a	2fny\	-a
1C	-re	1G	-re	2c\	iu-	2e\	iu-
.	.	.	.	2B\	-di-	2d\	-di-
=99-	=99-	=99-	=99-	=99-	=99-	=99-	=99-
0.F	Vi-	2A/	Vi-	1.A	-ca-	1.cny	-ca-
.	.	2G/	.	.	.	.	.
.	.	0F	.	.	.	.	.
.	.	.	.	2G/	.	2B/	.
.	.	.	.	(>2A\	-re	(<2c/	-re
!	!	!	!	!LO:SIC:v:t=custos c	!	!	!
.	.	.	.	2B\)	.	2d,<\)	.
!	!	!	!	!LO:LB:g=original	!	!	!
=100-	=100-	=100-	=100-	=100-	=100-	=100-	=100-
0E	-uos	0G	-uos	1c	Vi-	1e	Vi-
.	.	.	.	1c	-uos	1c	-vos
1E	et	1G	et	1c	et	1g	et
=101-	=101-	=101-	=101-	=101-	=101-	=101-	=101-
0D	mor-	0d	mor-	1c	mor-	0f	mor-
.	.	.	.	2B\	.	.	.
.	.	.	.	2A\	.	.	.
!	!	!LO:SIC:v:t=custos G	!	!	!	!	!
1D	-tu-	1d	-tu-	2.B\	.	1f	-tu-
.	.	.	.	4B\	-tu-	.	.
!	!	!LO:PB:g=original	!	!	!	!	!
=102-	=102-	=102-	=102-	=102-	=102-	=102-	=102-
1C	-os	1G	-os	1c	-os	1e,<	-os
1C	Cu-	1.G	Cu-	1c	cu-	1e	Cu-
1BB	-ius	.	.	1d	-ius	1g	-ius
.	.	2G/	-ius	.	.	.	.
=103-	=103-	=103-	=103-	=103-	=103-	=103-	=103-
0C	Re-	0G	Re-	0c	re-	0e	re-
!LO:SIC:v:t=custos G	!	!	!	!	!	!	!
1GG	-gni	1G	-gni	1B	-gni	1d	-gni
!LO:LB:g=original	!	!	!	!	!	!	!
=104-	=104-	=104-	=104-	=104-	=104-	=104-	=104-
!	!	!	!	!LO:N:vis=00	!	!	!
1G	non	1B	non	00.r	.	1g	non
1A	e-	1c	e-	.	.	2e\	e-
.	.	.	.	.	.	4f\	.
.	.	.	.	.	.	4g\	.
1F	-rit	1A	-rit	.	.	2a\	.
.	.	.	.	.	.	2b\	.
=105-	=105-	=105-	=105-	=105-	=105-	=105-	=105-
1E	non	1B	non	.	.	2g\	.
.	.	.	.	.	.	2f\	.
(<2C/	e-	2e\	e-	.	.	2e\	.
2D/)	.	2d\	.	.	.	2f\	.
(>2E\	-rit	1c	-rit	.	.	2g\	.
2F\)	.	.	.	.	.	2a\	-rit
=106-	=106-	=106-	=106-	=106-	=106-	=106-	=106-
*lig	*	*col	*	*	*	*	*
1G	fi-	1B	fi-	0.r	.	0g	fi-
1C	.	0A	.	.	.	.	.
*Xlig	*	*Xcol	*	*	*	*	*
!	!	!	!	!	!	!LO:TX:t=P:problem:♯below	!
!	!	!	!	!	!	!LO:SIC:v:t=custos g	!
1D	.	.	.	.	.	1f#Xi	.
!	!	!	!	!	!	!LO:LB:g=original	!
=107-	=107-	=107-	=107-	=107-	=107-	=107-	=107-
1GG,<	-nis.	1B,<	-nis.	0d	Et	1g,<	-nis
1G	Et	1B	Et	.	.	1g	Et
1F#X	in	1A	in	1d	in	1a	in
=108-	=108-	=108-	=108-	=108-	=108-	=108-	=108-
1.G	Spi-	1.B	Spi-	1.d	Spi-	1.g	Spi-
2G\	-ri-	2B\	-ri-	2d\	-ri-	2g\	-ri-
1G	-tum	1B	-tum	1d	-tum	1g	-t(um)
=109-	=109-	=109-	=109-	=109-	=109-	=109-	=109-
*col	*	*	*	*col	*	*col	*
0C	San-	2c\	San-	0e	San-	0g	San-
.	.	4B\	.	.	.	.	.
.	.	4A/	.	.	.	.	.
.	.	2G/	.	.	.	.	.
.	.	2A/	.	.	.	.	.
0BB	-ct(um)	1B	.	0d	-ct(um)	0g	-ct(um)
=110-	=110-	=110-	=110-	=110-	=110-	=110-	=110-
.	.	1G	-ctum	.	.	.	.
1.AA	Do-	1.A	Do-	1.c	Do-	1.g	Do-
2AA/	-mi-	2A/	-mi-	2c\	-mi-	2f#X\	-mi-
*Xcol	*	*	*	*Xcol	*	*Xcol	*
=111-	=111-	=111-	=111-	=111-	=111-	=111-	=111-
1GG	-num	1d	-n(um)	1B	-num	1g,<	-n(um)
1G	et	1B	et	1d	et	1.g\	et
!	!	!LO:SIC:v:t=custos A	!	!	!	!	!
1E	Vi-	1c	Vi-	1e	Vi-	.	Vi-
.	.	.	.	.	.	2g	.
!	!	!LO:LB:g=original	!	!	!	!	!
=112-	=112-	=112-	=112-	=112-	=112-	=112-	=112-
1.Fny	-vi-	1.A	-vi-	1.cn	-vi-	1.fny	-vi-
2D/	-fi-	2A/	-fi-	2d\	-fi-	2f\	-fi-
!	!	!	!	!LO:TX:t=P:problem:♯above	!	!	!
!	!	!	!	!LO:SIC:v:t=custos d	!	!	!
1A	-can-	1A	-can-	1c#Xi	-can-	1e	-can-
!	!	!	!	!LO:LB:g=original	!	!	!
=113-	=113-	=113-	=113-	=113-	=113-	=113-	=113-
1D	-t(em)	0.A	-tem	0.d	-tem	0.f#X	-tem
(<2D/	qui	.	.	.	.	.	.
2E\)	.	.	.	.	.	.	.
!LO:TX:t=P:problem:♯above	!	!	!	!	!	!	!
(>2F#Xi\	ex	.	.	.	.	.	.
!LO:SIC:v:t=custos G	!	!	!	!	!	!	!
2D/)	.	.	.	.	.	.	.
!LO:LB:g=original	!	!	!	!	!	!	!
=114-	=114-	=114-	=114-	=114-	=114-	=114-	=114-
0G	Pa-	1rG	.	1r	.	00.r	.
.	.	(<2G/	qui	(>2B\	qui	.	.
.	.	2A/)	.	2cny\)	.	.	.
1G	-tre	(>2B\	ex	(>2d\	ex	.	.
.	.	2G/)	.	2B\)	.	.	.
=115-	=115-	=115-	=115-	=115-	=115-	=115-	=115-
1.C	Fi-	0c	Pa-	0e	Pa-	.	.
2C/	-li-	.	.	.	.	.	.
1GG	-o-	1B	-tre	1d	-tre	.	.
=116-	=116-	=116-	=116-	=116-	=116-	=116-	=116-
(<1.AA	-que	1A	Fi-	1c	Fi-	00.r	.
.	.	2A/	-li-	2c\	-li-	.	.
2BB/	.	2G/	-o-	2d\	-o-	.	.
1C)	.	2.E/	-que	1e	-que	.	.
.	.	4E/	pro-	.	.	.	.
=117-	=117-	=117-	=117-	=117-	=117-	=117-	=117-
*col	*	*	*	*	*	*	*
1AA	pro-	(<0A	-ce-	1c	pro-	.	.
*	*	*	*	*col	*	*	*
0E	-ce-	.	.	0B	-ce-	.	.
!	!	!LO:TX:t=P:problem:♯above	!	!	!	!	!
.	.	1G#Xi)	.	.	.	.	.
*Xcol	*	*	*	*	*	*	*
=118-	=118-	=118-	=118-	=118-	=118-	=118-	=118-
*	*	*	*	*Xcol	*	*	*
1AA	-dit	1A,<	-dit,	1c,<	-dit	1r	.
1AA	Qui	1c	Qui	1e	qui	1a	qui
1E	cum	1B	cum	1e	cum	1g#X	cum
=119-	=119-	=119-	=119-	=119-	=119-	=119-	=119-
0A	Pa-	0c	Pa-	0e	Pa-	0a	Pa-
1A	-tre	1c	-tre	1e	-tre	1a	-tre
=120-	=120-	=120-	=120-	=120-	=120-	=120-	=120-
1Fny	et	1c	et	1f	et	1a	et
1.G	Fi-	1.B	Fi-	1.d	Fi-	1.gny	Fi-
2G\	-li-	2B\	-li-	2d\	-li-	2g\	-li-
=121-	=121-	=121-	=121-	=121-	=121-	=121-	=121-
0.C	-o	0.c	-o	0.e	-o	0.g	-o
=122-	=122-	=122-	=122-	=122-	=122-	=122-	=122-
1.C	Si-	1.c	Si-	1.e	Si-	1.g	Si-
2G\	-mul	2B\	-mul	2d\	-mul	2g\	-mul
!	!	!	!	!	!	!LO:SIC:v:t=custos e	!
1A	a-	1A	a-	1c	a-	1e	a-
!	!	!	!	!	!	!LO:LB:g=original	!
=123-	=123-	=123-	=123-	=123-	=123-	=123-	=123-
*col	*	*	*	*col	*	*	*
1E	-do-	1G#X	-do-	1B	-do-	1.e	-do-
!	!	!LO:SIC:v:t=custos G	!	!	!	!	!
0F	-ra-	0A	-ra-	0A	-ra-	.	.
.	.	.	.	.	.	2e\	-ra-
.	.	.	.	.	.	1d	.
*Xcol	*	*	*	*Xcol	*	*	*
!	!	!LO:LB:g=original	!	!	!	!	!
=124-	=124-	=124-	=124-	=124-	=124-	=124-	=124-
0E	-tur	0Gny	-tur	0B	-tur	0e	-tur
!	!	!	!	!LO:SIC:v:t=custos c	!	!	!
1E	et	1G	et	1B	et	1e	et
!	!	!	!	!LO:LB:g=original	!	!	!
=125-	=125-	=125-	=125-	=125-	=125-	=125-	=125-
1.C	con-	1.G	con-	1.c	con-	1.e	con-
2GG/	-glo-	2B\	-glo-	2d\	-glo-	2g\	-glo-
1AA	-ri-	1A	-ri-	1c	-ri-	1e	-ri-
=126-	=126-	=126-	=126-	=126-	=126-	=126-	=126-
!	!	!	!	!	!	!LO:TX:t=P:problem:♯above	!
1BB	-fi-	1d	-fi-	1B	-fi-	2f#Xi\	-fi-
.	.	.	.	.	.	0g	-ca-
*lig	*	*lig	*	*col	*	*	*
1C	-ca-	1e	-ca-	0A	-ca-	.	.
!LO:SIC:v:t=custos GG	!	!	!	!	!	!	!
1D	.	1d	.	.	.	.	.
!	!	!	!	!	!	!LO:TX:t=P:problem:♯above	!
.	.	.	.	.	.	2f#Xi\	.
*Xlig	*	*Xlig	*	*	*	*	*
*	*	*	*	*Xcol	*	*	*
!LO:LB:g=original	!	!	!	!	!	!	!
=127-	=127-	=127-	=127-	=127-	=127-	=127-	=127-
*M2/1	*	*M2/1	*	*M2/1	*	*M2/1	*
*met(C|)	*	*met(C|)	*	*met(C|)	*	*met(C|)	*
!LO:TX:t=P:problem:met(C|)	!	!LO:TX:t=P:problem:met(C|)	!	!LO:TX:t=P:problem:met(C|)	!	!LO:TX:t=P:problem:met(C|)	!
2GG,</	-tur,	4d,<\	-tur.	2B\	-tur,	2g\	-tur
.	.	4d\	Qui	.	.	.	.
4G\	qui	4B\	lo-	4B\	qui	2g\	qui
4E\	lo-	4.e\	-cu-	4G/	lo-	.	.
(>4.A\	-cu-	.	.	(>4.c\	-cu-	4e\	lo-
.	.	8d\	-t(us)	.	.	.	.
.	.	2c\	e(st)	.	.	2e\	-cu-
8G\)	.	.	.	8B\)	.	.	.
4.F\	.	.	.	4.A/	.	.	.
.	.	4d\	per	.	.	4d\	-tus
8F\	-tus	.	.	8A/	-tus	.	.
=128-	=128-	=128-	=128-	=128-	=128-	=128-	=128-
4E\	est	4B\	Pro-	4G/	eſt	2e\	eſt
8C/L	per	2e\	-phe-	2G/	per	.	.
8D/J	.	.	.	.	.	.	.
!LO:TX:t=P:problem:mixed beam	!	!	!	!	!	!	!
8E\L	.	.	.	.	.	2r	.
8F\	.	.	.	.	.	.	.
8G\	.	4d\	.	4G/	Pro-	.	.
8GG/J	.	.	.	.	.	.	.
4.C/	Pro-	8c\L	.	8E/L	-phe-	0r	.
.	.	8d\	.	8F/J	.	.	.
.	.	8e\	.	2G/	.	.	.
8BB/	.	8d\J	.	.	.	.	.
2AA/	-phe-	2c\	.	.	.	.	.
!	!	!	!	!LO:TX:t=P:problem:♯above	!	!	!
.	.	.	.	4F#Xi/	.	.	.
=129-	=129-	=129-	=129-	=129-	=129-	=129-	=129-
4GG,</	-tas.	4B\	-tas,	4.G,</	-tas	.	.
4G\	Et	4B\	Et	.	.	.	.
.	.	.	.	8d\	Et	.	.
4G\	V-	4B\	V-	4d\	V-	.	.
!LO:TX:t=P:problem:♯above	!	!	!	!	!	!	!
4F#Xi\	-nam	4A/	-n(am)	4d\	-nam	.	.
2G\	San-	2B\	San-	2d\	San-	1r	.
4E\	-ct(am)	8c#X\	-ct(am)	4e\	-ctam	.	.
.	.	8c#\	Ca-	.	.	.	.
4D/	Ca-	2d\	-tho-	4f\	Ca-	.	.
=130-	=130-	=130-	=130-	=130-	=130-	=130-	=130-
4.AA/	-tho-	.	.	4.e\	-tho-	2r	.
.	.	4c#X\	-li-	.	.	.	.
8AA/	-li-	.	.	8e\	-li-	.	.
4D/	-c(am)	4d\	-c(am)	4d\	-c(am)	4r	.
!	!	!	!	!	!	!LO:TX:t=P:problem:♯above	!
4D/	et	4A/	et	4d\	et	4f#Xi\	et
4D/	A-	4.A/	A-	4d\	A-	4f#\	A-
4C#X/	-po-	.	.	4e\	-po-	4e\	-po-
!	!	!LO:SIC:v:t=custos A	!	!	!	!	!
.	.	8A/	-po-	.	.	.	.
!	!	!LO:LB:g=original	!	!	!	!	!
4.D/	-sto-	4.A/	-sto-	4.d\	-sto-	4.f#X\	-ſto-
!	!	!	!	!LO:SIC:v:t=custos d	!	!	!
8D/	-li-	8A/	-li-	8d\	-li-	8f#\	-li-
!	!	!	!	!LO:LB:g=original	!	!	!
=131-	=131-	=131-	=131-	=131-	=131-	=131-	=131-
4BB/	-c(am)	4B\	-cam	4d\	-cam	8g#X\	-cam
.	.	.	.	.	.	8g#\	Ec-
4AA/	Ec-	4cny\	Ec-	4e\	Ec-	2a\	-cle-
4.E\	-cle-	4.B\	-cle-	4.e\	-cle-	.	.
.	.	.	.	.	.	4g#X\	-ſi-
8E\	-ſi-	8B\	-ſi-	8e\	-ſi-	.	.
!	!	!	!	!	!	!	!
2AA/	-am	2c#X\	-am	4e,<\	-am	4a\	-am
.	.	.	.	4A/	Con-	4a\	Con-
!LO:SIC:v:t=custos A	!	!	!	!	!	!	!
2r	.	2r	.	4.d\	-fi-	4.fny\	-fi-
.	.	.	.	8d\	-te-	8f\	-te-
!LO:LB:g=original	!	!	!	!	!	!	!
=132-	=132-	=132-	=132-	=132-	=132-	=132-	=132-
!	!	!	!	!	!	!LO:SIC:v:t=custos e	!
2r	.	2rG	.	2c#X\	-or	2e\	-or
!	!	!	!	!	!	!LO:PB:g=original	!
2A\	V-	2A/	V-	2c#\	V-	2e\	V-
2G\	-num	2B-X\	-num	2d\	-n(um)	2gny\	-num
!LO:TX:t=P:problem:♯above	!	!	!	!	!	!	!
2F#Xi\	bap-	2A/	Bap-	2d\	Bap-	4a\	Bap-
.	.	.	.	.	.	2a\	-ti-
=133-	=133-	=133-	=133-	=133-	=133-	=133-	=133-
*M1/1	*	*M1/1	*	*M1/1	*	*M1/1	*
!	!	!	!	!	!	!LO:TX:a:t=P:problem:w źródle nie występuję taka zmiana metrum [utwór przechodzi bezpośrednio na 3/1 w następnym takcie]; przyjęte w kodzie dla zachowania podziału zapisu	!
!	!	!	!	!LO:TX:a:t=P:problem:w źródle nie występuję taka zmiana metrum [utwór przechodzi bezpośrednio na 3/1 w następnym takcie]; przyjęte w kodzie dla zachowania podziału zapisu	!	!	!
!	!	!LO:TX:a:t=P:problem:w źródle nie występuję taka zmiana metrum [utwór przechodzi bezpośrednio na 3/1 w następnym takcie]; przyjęte w kodzie dla zachowania podziału zapisu	!	!	!	!	!
!LO:TX:a:t=P:problem:w źródle nie występuję taka zmiana metrum [utwór przechodzi bezpośrednio na 3/1 w następnym takcie]; przyjęte w kodzie dla zachowania podziału zapisu	!	!	!	!	!	!	!
1G	-ti-	1B-X	-ti-	1d	-ti-	.	.
.	.	.	.	.	.	8g\L	.
.	.	.	.	.	.	8f\J	.
.	.	.	.	.	.	2g\	.
=134-	=134-	=134-	=134-	=134-	=134-	=134-	=134-
*M3/1	*	*M3/1	*	*M3/1	*	*M3/1	*
!	!	!	!	!	!	!LO:TX:a:t=P:W źródle bemol w funkcji kasownika:problem	!
!	!	!	!	!	!	!LO:N:acc=-	!
1D	-sma	1A	-ſma	1d	-ſma	1fn	-sma
1D	in	1.A	in	1d	in	1f	in
1AA	re-	.	.	1cny	re-	1e	re-
.	.	2A/	re-	.	.	.	.
=135-	=135-	=135-	=135-	=135-	=135-	=135-	=135-
0BB-X	-miſ-	0F	-miſ-	0B-X	-miſ-	2d\	-miſ-
.	.	.	.	.	.	2c/	.
.	.	.	.	.	.	2d\	.
.	.	.	.	.	.	2e\	.
1FF	-si-	1F	-si-	1A	-si-	2.f\	.
.	.	.	.	.	.	4f\	-si-
=136-	=136-	=136-	=136-	=136-	=136-	=136-	=136-
1.GG	-o-	1.B-X	-o-	1.G	-o-	1.d	-o-
2D/	-nem	2d\	-nem	2Fny/	-nem	2f\	-nem
1E-X	pec-	2.B-X\	pec-	1G	pec-	1.e-X	pec-
.	.	4G/	-ca-	.	.	.	.
=137-	=137-	=137-	=137-	=137-	=137-	=137-	=137-
*col	*	*	*	*col	*	*	*
1Cny	-ca-	0cny	-to-	1G	-ca-	.	.
.	.	.	.	.	.	2e-\	-ca-
*	*	*	*	*	*	*col	*
0GG	-to-	.	.	0G	-to-	0d	-to-
!	!	!LO:TX:a:t=P:w źródle krzyżyk w funkcji kasownika:problem	!	!	!	!	!
!	!	!LO:N:acc=#	!	!	!	!	!
.	.	1Bn	.	.	.	.	.
*Xcol	*	*	*	*Xcol	*	*	*
=138-	=138-	=138-	=138-	=138-	=138-	=138-	=138-
1C	-rum	1c	-rum	1G,<	-rum	1e-X,<	-rum
1C	et	1.G	Et	1c	Et	1e-y	et
1GG	ex-	.	.	1Bny	ex-	1d	ex-
.	.	2G/	ex-	.	.	.	.
*	*	*	*	*	*	*Xcol	*
=139-	=139-	=139-	=139-	=139-	=139-	=139-	=139-
0C	-pe-	0G	-pe-	0c	-pe-	0e-y	-pe-
1C	-cto	1G	-cto	1c	-cto	1e-y	-cto
=140-	=140-	=140-	=140-	=140-	=140-	=140-	=140-
!LO:TX:a:i:t=3	!	!	!	!	!	!	!
!LO:N:vis=00	!	!	!	!	!	!	!
00.r	.	1r	.	1r	.	1.g	re-
!	!	!	!	!LO:SIC:v:s=1.e-	!	!	!
.	.	1.c	re-	1.e	re-	.	.
.	.	.	.	.	.	2f\	-ſur-
.	.	.	.	.	.	1.eny	-re-
!	!	!LO:SIC:v:t=custos A	!	!LO:SIC:v:t=custos c	!	!	!
.	.	2B-X\	-ſur-	2d\	-ſur-	.	.
!	!	!LO:LB:g=original	!	!LO:PB:g=original	!	!	!
=141-	=141-	=141-	=141-	=141-	=141-	=141-	=141-
.	.	1.A	-re-	1.c	-re-	.	.
.	.	.	.	.	.	2c/	-cti-
.	.	.	.	.	.	1.f	-o-
.	.	2F/	-cti-	2A\	-cti-	.	.
.	.	(<1.B-X	-o-	1.d	-o-	.	.
!	!	!	!	!	!	!LO:SIC:v:t=custos d	!
.	.	.	.	.	.	2e-y\	-[[nem]]-
!	!	!	!	!	!	!LO:LB:g=original	!
=142-	=142-	=142-	=142-	=142-	=142-	=142-	=142-
0.r	.	.	.	.	.	1.d	.
.	.	(<2A/)	.	2c\	.	.	.
.	.	2G/)	-nem	2B-X\	-nem	.	.
.	.	2F/	.	2A/	.	2d\	-nem
.	.	1E	mor-	1G	mor-	1c#X	mor-
=143-	=143-	=143-	=143-	=143-	=143-	=143-	=143-
*	*	*col	*	*	*	*	*
!LO:TX:t=P:problem:pominięty fragment	!	!	!	!	!	!	!
0.ryy	.	1D	-tu-	1F	-tu-	1d	-tu-
*	*	*	*	*	*	*lig	*
.	.	0A	-o-	0E	-o-	1d	-o-
!	!	!	!	!	!	!LO:TX:t=P:problem:♯above	!
.	.	.	.	.	.	1c#Xi	.
*	*	*	*	*	*	*Xlig	*
*	*	*Xcol	*	*	*	*	*
=144-	=144-	=144-	=144-	=144-	=144-	=144-	=144-
!	!	!	!	!LO:TX:a:t=P:w źródle bemol w funkcji kasownika:problem	!	!	!
!	!	!	!	!LO:N:acc=-	!	!	!
1r	.	0.A	-rum	1Fn	-rum	0d	-rum.
*col	*	*	*	*	*	*	*
0AA	Et	.	.	1r	.	.	.
!	!	!	!	!LO:TX:t=P:problem:♯above	!	!	!
.	.	.	.	1c#Xi	Et	1eny	Et
*Xcol	*	*	*	*	*	*	*
=145-	=145-	=145-	=145-	=145-	=145-	=145-	=145-
1D	Vi-	1rB	.	1d	Vi-	1f	Vi-
1Fny	-tam	1rB	.	1d	-tam	1f	-tam
!	!	!	!	!LO:TX:t=P:problem:♯above	!	!	!
1A	Ven-	1A	Et	1c#Xi	Ven-	1e	Ven-
=146-	=146-	=146-	=146-	=146-	=146-	=146-	=146-
1D	-tu-	1F	Vi-	2f\	-tu-	2d\	-tu-
.	.	.	.	2e\	.	2e\	.
*lig	*	*	*	*	*	*	*
1BB-X	-ri	1B-X	-tam	1d	.	1f	.
!LO:SIC:v:t=custos FF	!	!	!	!	!	!	!
1C	.	1G	Ven-	1cny	-ri	1e	-ri
*Xlig	*	*	*	*	*	*	*
!LO:LB:g=original	!	!	!	!	!	!	!
=147-	=147-	=147-	=147-	=147-	=147-	=147-	=147-
2FF/	Sae-	2A/	-tu-	1.c	Sae-	2f\	Sae-
2GG/	.	2B-X\	.	.	.	4e\	.
.	.	.	.	.	.	4d\	.
2AA/	.	0c	.	.	.	2cny/	.
2BB-X/	.	.	.	4B-X\	.	2d\	.
.	.	.	.	4A/	.	.	.
1C	.	.	.	2G/	.	2e\	.
.	.	.	.	2A/	.	2f#X\	.
=148-	=148-	=148-	=148-	=148-	=148-	=148-	=148-
*	*	*	*	*lig	*	*	*
1BB-X	.	1d	-ri	1B-X	.	0g	-cu-
1.D	.	1.d	Sae-	1.A	.	.	.
.	.	.	.	.	.	1f#X	.
*	*	*	*	*Xlig	*	*	*
2D/	-cu-	2d\	-cu-	2A/	-cu-	.	.
=149-	=149-	=149-	=149-	=149-	=149-	=149-	=149-
!	!	!	!	!LO:TX:a:t=P:w źródle krzyżyk w funkcji kasownika:problem	!	!	!
!	!	!	!	!LO:N:acc=#	!	!	!
0.GG	-li	0.d	-li	0.Bn	-li	0.g	-li
=150-	=150-	=150-	=150-	=150-	=150-	=150-	=150-
*lig	*	*	*	*lig	*	*	*
!	!	!LO:N:vis=00	!	!	!	!	!
1G	A-	00.r	.	1d	A-	0g	A-
1c	.	.	.	1e	.	.	.
*Xlig	*	*	*	*Xlig	*	*	*
1A	.	.	.	1c	.	1f#X	-men
=151-	=151-	=151-	=151-	=151-	=151-	=151-	=151-
0.G	-men	.	.	1B	.	1.g	A-
.	.	.	.	2G/	.	.	.
.	.	.	.	2A/	.	4fny\	.
.	.	.	.	.	.	4e\	.
.	.	.	.	2B\	.	2d\	.
!	!	!	!	!LO:SIC:v:t=custos d	!	!LO:SIC:v:t=custos f	!
.	.	.	.	2c\	.	2e\	.
!	!	!	!	!LO:LB:g=original	!	!LO:LB:g=original	!
=152-	=152-	=152-	=152-	=152-	=152-	=152-	=152-
*lig	*	*	*	*	*	*	*
*	*	*	*	*	*	*col	*
!LO:SIC:v:s=1F	!	!	!	!	!	!	!
1F#X	A-	0.r	.	0d	.	1f#X	.
1G	.	.	.	.	.	0e	.
*Xlig	*	*	*	*	*	*	*
!	!	!	!	!LO:TX:t=P:problem:♯above	!	!	!
1A	.	.	.	1c#Xi	.	.	.
=153-	=153-	=153-	=153-	=153-	=153-	=153-	=153-
*lig	*	*lig	*	*	*	*	*
1D	.	1A	A-	0.d	-men	1f#X	-men
1G	.	1Bny	.	.	.	1.g	A-
*Xlig	*	*Xlig	*	*	*	*	*
1Eny	.	1G	.	.	.	.	.
.	.	.	.	.	.	2e\	.
=154-	=154-	=154-	=154-	=154-	=154-	=154-	=154-
0.D	-men	1F#X	.	0d	A-	1a	.
.	.	2D/	.	.	.	0f#X	.
.	.	2E/	.	.	.	.	.
!	!	!LO:TX:t=P:problem:♯below	!	!	!	!	!
.	.	2F#X/	.	1A	.	.	.
.	.	2G/	.	.	.	.	.
*	*	*	*	*	*	*Xcol	*
=155-	=155-	=155-	=155-	=155-	=155-	=155-	=155-
*lig	*	*	*	*col	*	*lig	*
*	*ij	*	*	*	*	*	*
1C	A-	0A	.	1cny	-men	1e	.
1D	.	.	.	0B	A-	1f#	.
*Xlig	*	*	*	*Xcol	*	*Xlig	*
!	!	!LO:TX:t=P:problem:♯above	!	!	!	!	!
!	!	!LO:SIC:v:t=custos A	!	!	!	!	!
1E	.	1G#Xi	-men	.	.	1e	.
!	!	!LO:LB:g=original	!	!	!	!	!
=156-	=156-	=156-	=156-	=156-	=156-	=156-	=156-
2AA/	.	2A/	A-	2c\	.	1e	-men
2BBny/	.	2Gny/	.	2d\	.	.	.
2C/	.	2E/	.	2e\	.	1r	.
2D/	.	2Fny/	.	4d\	.	.	.
.	.	.	.	4c\	.	.	.
*col	*	*	*	*	*	*	*
0E	.	1G	.	1B	.	1r	.
=157-	=157-	=157-	=157-	=157-	=157-	=157-	=157-
*	*	*	*	*col	*	*	*
.	.	0c	.	1d	.	0.r	.
1Fny	.	.	.	0d	-men	.	.
1G	.	1B	.	.	.	.	.
*Xcol	*	*	*	*Xcol	*	*	*
=158-	=158-	=158-	=158-	=158-	=158-	=158-	=158-
*lig	*	*lig	*	*lig	*	*lig	*
1C	.	1e	.	1c	A-	1g	A-
1F	.	1c	.	1A	.	1a	.
*Xlig	*	*Xlig	*	*Xlig	*	*Xlig	*
!	!	!LO:TX:a:t=P:w źródle krzyżyk w funkcji kasownika:problem	!	!	!	!	!
!	!	!LO:N:acc=#	!	!	!	!	!
1D	.	1Bn	.	1d	.	1f#	.
=159-	=159-	=159-	=159-	=159-	=159-	=159-	=159-
!LO:SIC:v:t=custos BB	!	!	!	!	!	!	!
0.C	-men	0.c	-men	1G	.	1e	-men
.	.	.	.	1.G	-men	2c\	A-
.	.	.	.	.	.	2d\	.
.	.	.	.	.	.	2e\	.
.	.	.	.	2A/	.	2f#X\	.
*	*Xij	*	*	*	*	*	*
!LO:PB:g=original	!	!	!	!	!	!	!
=160-	=160-	=160-	=160-	=160-	=160-	=160-	=160-
*	*	*lig	*	*col	*	*	*
*	*	*	*ij	*	*ij	*	*
1BB	A-	1d	A-	1B	A-	0g	.
1C	.	1e	.	0A	.	.	.
*	*	*Xlig	*	*Xcol	*	*	*
1D	.	1d	.	.	.	1f#X	.
=161-	=161-	=161-	=161-	=161-	=161-	=161-	=161-
*M2/1	*	*M2/1	*	*M2/1	*	*M2/1	*
*met(C|)	*	*met(C|)	*	*met(C|)	*	*met(C|)	*
!LO:TX:t=P:problem:met(C|)	!	!LO:TX:t=P:problem:met(C|)	!	!LO:TX:t=P:problem:met(C|)	!	!LO:TX:t=P:problem:met(C|)	!
2GG/	-men	2d\	.	4B\	-men	1g	-men
*	*	*	*	*	*Xij	*	*
.	.	.	.	4d\	A-	.	.
2C/	A-	2c\	.	4e\	.	.	.
.	.	.	.	4c\	.	.	.
2.G\	.	2d\	.	4B\	.	4.g\	A-
.	.	.	.	8G/L	.	.	.
.	.	.	.	8A/J	.	16fny\LL	.
.	.	.	.	.	.	16e\JJ	.
.	.	4.d\	-men	8B\L	.	8d\L	.
.	.	.	.	8c\J	.	8e\	.
4F\	.	.	.	4d\	.	8f\	.
*	*	*	*Xij	*	*	*	*
.	.	8d\	A-	.	.	8d\J	.
=162-	=162-	=162-	=162-	=162-	=162-	=162-	=162-
4.E\	.	4e\	.	4c\	.	2g\	.
!	!	!	!	!LO:SIC:v:t=custos d	!	!	!
.	.	4c\	-men	4e\	.	.	.
8F\	.	.	.	.	.	.	.
!	!	!	!	!LO:LB:g=original	!	!	!
*	*	*	*ij	*	*	*	*
!	!	!	!	!	!	!LO:SIC:v:t=custos g	!
2G\	.	4B\	A-	4.d\	.	2g\	-men
.	.	8G/L	.	.	.	.	.
.	.	8A/J	.	8c\	.	.	.
!	!	!	!	!	!	!LO:LB:g=original	!
8GG/L	.	8B\L	.	2B\	.	8g\L	A-
!	!	!	!	!	!	!LO:TX:t=P:problem:♯above	!
8AA/	.	8c\J	.	.	.	16f#Xi\L	.
.	.	.	.	.	.	16e\JJ	.
8BB/	.	2d\	-men	.	.	8d\L	.
8C/J	.	.	.	.	.	8e\J	.
!	!	!	!	!	!	!LO:TX:t=P:problem:♯above	!
4D/	.	.	.	4A/	.	8f#Xi\L	.
.	.	.	.	.	.	8g\	.
*	*	*	*Xij	*	*	*	*
*	*	*	*ij	*	*	*	*
4C/	-men	4e\	A-	2c\	.	8a\	.
.	.	.	.	.	.	8g\J	.
=163-	=163-	=163-	=163-	=163-	=163-	=163-	=163-
*	*ij	*	*	*	*	*	*
4D/	A-	1d	.	.	.	8f#X\L	.
.	.	.	.	.	.	8d\J	.
4GG/	.	.	.	4B\	.	2g\	.
2D/	.	.	.	2A/	.	.	.
.	.	.	.	.	.	4f#\	.
!	!	!	!	!	!	!LO:TX:a:t=P:problem:w źródle brak kreski końcowej	!
!	!	!	!	!LO:TX:a:t=P:problem:very like terminal long	!	!LO:TX:a:t=P:problem:very like terminal long	!
!LO:N:vis=0	!	!LO:TX:a:t=P:problem:very like terminal long	!	!	!	!	!
1GG;>	-men	1dl	-men	1Bl	-men.	1gl	-men.
*	*Xij	*	*Xij	*	*	*	*
==	==	==	==	==	==	==	==
*-	*-	*-	*-	*-	*-	*-	*-
!!title: @{OTL};
!!!RDF**kern: > = above
!!!RDF**kern: < = below
!!!RDF**kern: l = terminal long
!!!RDF**kern: i = editorial accidental
!!!EED: Wojciech Jakubiak-Danek
!!!EST: 2021-03-10
!!!URL-scan: http://repozytorium.nifc.pl/skany/pl-kk-nut--i-7
!!!ONB-nifc: UWAGA: C (skan 0020-0024, s.34-42), A (0106-0110, s.33-41), T(0181-0185, s.27-35), B(0273–277, s.35-43). Części Mszy: 1. Kyrie, 2. Et in terra, 3. Patrem, 4. Sanctus, 5. Agnus Dei
!!!ENC: Andrzej Borzym
!!!END: 2021-02-25
